X:457
T:Reel 457
M:4/4
K:Dmix
L:1/8
cB|AD (3DDD A2GF|EDCD EFGE|AD (3DDD AGEG|ABcA d2cB|AD (3DDD  (3ABc GF|EDCD EFGE|Addc  (3ABc GF|EDCE D2|z2|ECEG c3d|ecdB cAGB|Addc d2cd|ecdB cAGF|ECEG c3d|ecdB cBAG|Addc  (3ABc GF|EDCE D2|
